X: 1
T: Maguire and Paterson
M: 3/4
L: 1/4
R: waltz
K: Dmaj
A,/ D/F/ | A>BA | AGF | EDE | F>A, D/F/ | A>B A | AGF | EDE | D>A, D/E/ | 
F>GF | F>GF | F>GF | F2 E | D>E F | E2 D | D3- | D> :|
A B/A/ | d>e d | cBA | AdA | B>A B/c/ | d>e d | cBA | Adf | e2 D/F/ |
A>BA | AGF | EDE | F2 F/E/ | D>E F | E2 D | D3- | D> :||
